app/images/icons/monitor.svg

<svg xmlns="http://www.w3.org/2000/svg" preserveAspectRatio="xMidYMid" width="73.375" height="59.38"><circle cx="56.5" cy="42.505" r="16.875" fill="#a3bbc8"/><path d="M60.635 47.856H38.943l.877 7h3.634a1.073 1.073 0 110 2.144H20.546a1.073 1.073 0 110-2.144h3.633l.877-7H3.365A3.364 3.364 0 010 44.499V3.357A3.365 3.365 0 013.365 0h57.27A3.365 3.365 0 0164 3.357v41.142a3.364 3.364 0 01-3.365 3.357zm-22.979 7.001l-.877-7h-9.558l-.877 7h11.312zm24.196-51.5c0-.67-.546-1.215-1.217-1.215H3.365c-.672 0-1.217.545-1.217 1.215v41.142c0 .67.545 1.215 1.217 1.215h57.27c.671 0 1.217-.545 1.217-1.215V3.357zm-3.508 38.785H13.673a1.072 1.072 0 01-1.074-1.071c0-.592.481-1.071 1.074-1.071h43.598V6.714h-2.363c-.593 0-1.074-.48-1.074-1.071 0-.592.481-1.072 1.074-1.072h3.436c.593 0 1.074.48 1.074 1.072v35.428c0 .592-.481 1.071-1.074 1.071zM52.546 20.5v16c0 .591-.481 1.071-1.074 1.071-.593 0-1.074-.48-1.074-1.071v-16a1.073 1.073 0 012.148 0zM39.564 34.214V36.5c0 .591-.48 1.071-1.073 1.071-.594 0-1.074-.48-1.074-1.071v-2.286a1.073 1.073 0 012.147 0zm-12.981-6.857V36.5c0 .591-.481 1.071-1.074 1.071-.593 0-1.074-.48-1.074-1.071v-9.143a1.073 1.073 0 012.148 0zm28.253-13.714a3.364 3.364 0 01-4.772 3.047l-8.604 9.09c.252.47.395 1.007.395 1.577a3.364 3.364 0 11-6.685-.542l-7.348-3.881a3.354 3.354 0 01-3.852.549l-8.406 8.141c.21.439.329.929.329 1.447a3.365 3.365 0 01-6.73 0 3.365 3.365 0 014.904-2.984l8.406-8.141a3.338 3.338 0 01-.328-1.446 3.365 3.365 0 016.729 0c0 .184-.016.365-.045.541l7.348 3.882a3.355 3.355 0 013.722-.614l8.603-9.09a3.341 3.341 0 01-.395-1.576 3.365 3.365 0 016.729 0zM12.528 31.857c-.671 0-1.217.544-1.217 1.214a1.217 1.217 0 002.434 0c0-.67-.546-1.214-1.217-1.214zm12.981-12.571c-.671 0-1.217.544-1.217 1.214a1.217 1.217 0 002.434 0c0-.67-.546-1.214-1.217-1.214zm12.982 6.856c-.672 0-1.217.545-1.217 1.215a1.217 1.217 0 002.434 0c0-.67-.546-1.215-1.217-1.215zm12.981-13.714c-.671 0-1.217.545-1.217 1.215a1.217 1.217 0 002.434 0c0-.67-.546-1.215-1.217-1.215zm-1.145-5.714H6.729V40h2.363c.593 0 1.074.48 1.074 1.071 0 .592-.481 1.071-1.074 1.071H5.655a1.071 1.071 0 01-1.073-1.071V5.643c0-.592.48-1.072 1.073-1.072h44.672a1.072 1.072 0 110 2.143z" fill="#243f4d" fill-rule="evenodd"/></svg>

<svg xmlns="http://www.w3.org/2000/svg" xmlns:xlink="http://www.w3.org/1999/xlink" preserveAspectRatio="xMidYMid" width="73.375" height="59.38" viewBox="0 0 73.375 59.38">
  <defs>
    <style>
      .cls-1 {
        fill: #a3bbc8;
      }

      .cls-2 {
        fill: #243f4d;
        fill-rule: evenodd;
      }
    </style>
  </defs>
  <g>
    <circle cx="56.5" cy="42.505" r="16.875" class="cls-1"/>
    <path d="M60.635,47.856 L38.943,47.856 L39.820,54.856 L43.454,54.856 C44.047,54.856 44.528,55.336 44.528,55.928 C44.528,56.520 44.047,57.000 43.454,57.000 L20.546,57.000 C19.953,57.000 19.472,56.520 19.472,55.928 C19.472,55.336 19.953,54.856 20.546,54.856 L24.179,54.856 L25.056,47.856 L3.365,47.856 C1.509,47.856 -0.000,46.351 -0.000,44.499 L-0.000,3.357 C-0.000,1.506 1.509,-0.000 3.365,-0.000 L60.635,-0.000 C62.491,-0.000 64.000,1.506 64.000,3.357 L64.000,44.499 C64.000,46.351 62.491,47.856 60.635,47.856 ZM37.656,54.857 L36.779,47.857 L27.221,47.857 L26.344,54.857 L37.656,54.857 ZM61.852,3.357 C61.852,2.687 61.306,2.142 60.635,2.142 L3.365,2.142 C2.693,2.142 2.148,2.687 2.148,3.357 L2.148,44.499 C2.148,45.169 2.693,45.714 3.365,45.714 L60.635,45.714 C61.306,45.714 61.852,45.169 61.852,44.499 L61.852,3.357 ZM58.344,42.142 L13.673,42.142 C13.080,42.142 12.599,41.663 12.599,41.071 C12.599,40.479 13.080,40.000 13.673,40.000 L57.271,40.000 L57.271,6.714 L54.908,6.714 C54.315,6.714 53.834,6.234 53.834,5.643 C53.834,5.051 54.315,4.571 54.908,4.571 L58.344,4.571 C58.937,4.571 59.418,5.051 59.418,5.643 L59.418,41.071 C59.418,41.663 58.937,42.142 58.344,42.142 ZM52.546,20.500 L52.546,36.500 C52.546,37.091 52.065,37.571 51.472,37.571 C50.879,37.571 50.398,37.091 50.398,36.500 L50.398,20.500 C50.398,19.908 50.879,19.428 51.472,19.428 C52.065,19.428 52.546,19.908 52.546,20.500 ZM39.564,34.214 L39.564,36.500 C39.564,37.091 39.084,37.571 38.491,37.571 C37.897,37.571 37.417,37.091 37.417,36.500 L37.417,34.214 C37.417,33.622 37.898,33.142 38.491,33.142 C39.084,33.142 39.564,33.622 39.564,34.214 ZM26.583,27.357 L26.583,36.500 C26.583,37.091 26.102,37.571 25.509,37.571 C24.916,37.571 24.435,37.091 24.435,36.500 L24.435,27.357 C24.435,26.765 24.916,26.285 25.509,26.285 C26.102,26.285 26.583,26.765 26.583,27.357 ZM54.836,13.643 C54.836,15.494 53.327,17.000 51.472,17.000 C50.969,17.000 50.492,16.888 50.064,16.690 L41.460,25.780 C41.712,26.250 41.855,26.787 41.855,27.357 C41.855,29.208 40.346,30.714 38.491,30.714 C36.635,30.714 35.126,29.208 35.126,27.357 C35.126,27.172 35.142,26.992 35.170,26.815 L27.822,22.934 C27.219,23.505 26.405,23.857 25.509,23.857 C24.955,23.857 24.432,23.721 23.970,23.483 L15.564,31.624 C15.774,32.063 15.893,32.553 15.893,33.071 C15.893,34.922 14.383,36.428 12.528,36.428 C10.673,36.428 9.163,34.922 9.163,33.071 C9.163,31.220 10.673,29.714 12.528,29.714 C13.082,29.714 13.605,29.850 14.067,30.087 L22.473,21.946 C22.263,21.508 22.145,21.017 22.145,20.500 C22.145,18.649 23.654,17.142 25.509,17.142 C27.364,17.142 28.874,18.649 28.874,20.500 C28.874,20.684 28.858,20.865 28.829,21.041 L36.177,24.923 C36.781,24.351 37.595,23.999 38.491,23.999 C38.993,23.999 39.470,24.111 39.899,24.309 L48.502,15.219 C48.251,14.748 48.107,14.212 48.107,13.643 C48.107,11.791 49.617,10.285 51.472,10.285 C53.327,10.285 54.836,11.791 54.836,13.643 ZM12.528,31.857 C11.857,31.857 11.311,32.401 11.311,33.071 C11.311,33.741 11.857,34.285 12.528,34.285 C13.199,34.285 13.745,33.741 13.745,33.071 C13.745,32.401 13.199,31.857 12.528,31.857 ZM25.509,19.286 C24.838,19.286 24.292,19.830 24.292,20.500 C24.292,21.169 24.838,21.714 25.509,21.714 C26.180,21.714 26.726,21.169 26.726,20.500 C26.726,19.830 26.180,19.286 25.509,19.286 ZM38.491,26.142 C37.819,26.142 37.274,26.687 37.274,27.357 C37.274,28.026 37.819,28.571 38.491,28.571 C39.162,28.571 39.708,28.026 39.708,27.357 C39.708,26.687 39.162,26.142 38.491,26.142 ZM51.472,12.428 C50.801,12.428 50.255,12.973 50.255,13.643 C50.255,14.312 50.801,14.857 51.472,14.857 C52.143,14.857 52.689,14.312 52.689,13.643 C52.689,12.973 52.143,12.428 51.472,12.428 ZM50.327,6.714 L6.729,6.714 L6.729,40.000 L9.092,40.000 C9.685,40.000 10.166,40.480 10.166,41.071 C10.166,41.663 9.685,42.142 9.092,42.142 L5.655,42.142 C5.062,42.142 4.582,41.663 4.582,41.071 L4.582,5.643 C4.582,5.051 5.062,4.571 5.655,4.571 L50.327,4.571 C50.920,4.571 51.400,5.051 51.400,5.642 C51.400,6.234 50.920,6.714 50.327,6.714 Z" class="cls-2"/>
  </g>
</svg>
